X: 36242
T: Sea Of Clouds, The
R: reel
M: 4/4
K: Dmajor
B|:ADFA defe|dAA=c BGBd|ADFA defg|1 abag fdBd:|2 afeg fede||
|:faaf gfeg|fddf ecAc|dBGB Adfg|1 abag faeg:|2 afeg fedB||

